Numix/16/status/indicator-keyboard-Ga-2.svg

<?xml version="1.0" encoding="UTF-8" standalone="no"?>
<svg
   xmlns:dc="http://purl.org/dc/elements/1.1/"
   xmlns:cc="http://creativecommons.org/ns#"
   xmlns:rdf="http://www.w3.org/1999/02/22-rdf-syntax-ns#"
   xmlns:svg="http://www.w3.org/2000/svg"
   xmlns="http://www.w3.org/2000/svg"
   xmlns:sodipodi="http://sodipodi.sourceforge.net/DTD/sodipodi-0.dtd"
   xmlns:inkscape="http://www.inkscape.org/namespaces/inkscape"
   viewBox="0 0 16 16"
   id="svg2"
   version="1.1"
   inkscape:version="0.91 r13725"
   sodipodi:docname="indicator-keyboard-Ga-2.svg">
  <metadata
     id="metadata14">
    <rdf:RDF>
      <cc:Work
         rdf:about="">
        <dc:format>image/svg+xml</dc:format>
        <dc:type
           rdf:resource="http://purl.org/dc/dcmitype/StillImage" />
      </cc:Work>
    </rdf:RDF>
  </metadata>
  <defs
     id="defs12" />
  <sodipodi:namedview
     pagecolor="#ffffff"
     bordercolor="#666666"
     borderopacity="1"
     objecttolerance="10"
     gridtolerance="10"
     guidetolerance="10"
     inkscape:pageopacity="0"
     inkscape:pageshadow="2"
     inkscape:window-width="640"
     inkscape:window-height="480"
     id="namedview10"
     showgrid="false"
     inkscape:zoom="14.75"
     inkscape:cx="8"
     inkscape:cy="8"
     inkscape:window-x="75"
     inkscape:window-y="34"
     inkscape:window-maximized="0"
     inkscape:current-layer="svg2" />
  <path
     style="fill:#ececec;fill-opacity:1"
     d="M 1.5996094 0 C 0.71320937 2.9605947e-16 0 0.71320937 0 1.5996094 L 0 14.400391 C 2.9605947e-16 15.286791 0.71320937 16 1.5996094 16 L 14.400391 16 C 15.286791 16 16 15.286791 16 14.400391 L 16 1.5996094 C 16 0.71320937 15.286791 0 14.400391 0 L 1.5996094 0 z M 4.5527344 4.7246094 C 5.0147344 4.7246094 5.3953125 4.7749531 5.6953125 4.8769531 C 5.9953125 4.9729531 6.2155156 5.06625 6.3535156 5.15625 L 6.1464844 5.6777344 C 5.9784844 5.5577344 5.7508906 5.462625 5.4628906 5.390625 C 5.1748906 5.312625 4.8613906 5.2734375 4.5253906 5.2734375 C 4.2133906 5.2734375 3.9205313 5.3293594 3.6445312 5.4433594 C 3.3685313 5.5573594 3.1278281 5.7290313 2.9238281 5.9570312 C 2.7198281 6.1850312 2.5575 6.4667344 2.4375 6.8027344 C 2.3235 7.1387344 2.2675781 7.5286563 2.2675781 7.9726562 C 2.2675781 8.3866563 2.3161094 8.7616563 2.4121094 9.0976562 C 2.5081094 9.4276563 2.65175 9.713125 2.84375 9.953125 C 3.04175 10.187125 3.2842656 10.366188 3.5722656 10.492188 C 3.8602656 10.618187 4.1923125 10.681641 4.5703125 10.681641 C 4.8763125 10.681641 5.1319375 10.666719 5.3359375 10.636719 C 5.5459375 10.600719 5.6877656 10.567109 5.7597656 10.537109 L 5.7597656 8.1445312 L 6.3710938 8.1445312 L 6.3710938 10.925781 C 6.2570938 10.973781 6.0313125 11.033469 5.6953125 11.105469 C 5.3653125 11.183469 4.9586563 11.222656 4.4726562 11.222656 C 4.0646562 11.222656 3.6858906 11.149859 3.3378906 11.005859 C 2.9898906 10.861859 2.6876875 10.654766 2.4296875 10.384766 C 2.1776875 10.108765 1.9799375 9.7691875 1.8359375 9.3671875 C 1.6919375 8.9591875 1.6191406 8.4946562 1.6191406 7.9726562 C 1.6191406 7.4506563 1.6975156 6.9898906 1.8535156 6.5878906 C 2.0095156 6.1798906 2.2184219 5.8403125 2.4824219 5.5703125 C 2.7524219 5.2943125 3.0659219 5.0834531 3.4199219 4.9394531 C 3.7739219 4.7954531 4.1507344 4.7246094 4.5527344 4.7246094 z M 9.171875 6.3359375 C 9.477875 6.3359375 9.7353125 6.3807031 9.9453125 6.4707031 C 10.161313 6.5547031 10.33675 6.6740781 10.46875 6.8300781 C 10.60075 6.9800781 10.695859 7.1591406 10.755859 7.3691406 C 10.815859 7.5791406 10.845703 7.8086875 10.845703 8.0546875 L 10.845703 10.988281 C 10.785703 11.006281 10.699938 11.026781 10.585938 11.050781 C 10.471937 11.068781 10.339453 11.089281 10.189453 11.113281 C 10.039453 11.137281 9.8715469 11.155969 9.6855469 11.167969 C 9.5055469 11.185969 9.3189531 11.195313 9.1269531 11.195312 C 8.8809531 11.195312 8.6533594 11.167281 8.4433594 11.113281 C 8.2393594 11.059281 8.0583437 10.975328 7.9023438 10.861328 C 7.7523437 10.741328 7.6329688 10.592109 7.5429688 10.412109 C 7.4589688 10.226109 7.4160156 10.000328 7.4160156 9.7363281 C 7.4160156 9.4843281 7.4645469 9.2698437 7.5605469 9.0898438 C 7.6565469 8.9098438 7.7927969 8.7624375 7.9667969 8.6484375 C 8.1407969 8.5284375 8.3478906 8.4407188 8.5878906 8.3867188 C 8.8278906 8.3327188 9.0871406 8.3066406 9.3691406 8.3066406 C 9.4531406 8.3066406 9.5408594 8.3122187 9.6308594 8.3242188 C 9.7268594 8.3302187 9.8163906 8.341375 9.9003906 8.359375 C 9.9903908 8.371375 10.065 8.3862969 10.125 8.4042969 C 10.191 8.4162969 10.237719 8.4294063 10.261719 8.4414062 L 10.261719 8.1523438 C 10.261719 7.9903437 10.248609 7.8355469 10.224609 7.6855469 C 10.200609 7.5295469 10.1465 7.3914844 10.0625 7.2714844 C 9.9844998 7.1454844 9.8707031 7.0466094 9.7207031 6.9746094 C 9.5767031 6.8966094 9.3845312 6.8574219 9.1445312 6.8574219 C 8.8025312 6.8574219 8.5488594 6.8816875 8.3808594 6.9296875 C 8.2128594 6.9776875 8.0897188 7.016875 8.0117188 7.046875 L 7.9296875 6.5332031 C 8.0316875 6.4852031 8.1884375 6.4404375 8.3984375 6.3984375 C 8.6144375 6.3564375 8.871875 6.3359375 9.171875 6.3359375 z M 13.052734 8.7539062 C 13.446634 8.7539062 13.742506 8.851875 13.941406 9.046875 C 14.140306 9.237975 14.240234 9.5044563 14.240234 9.8476562 C 14.240234 9.9997563 14.212803 10.14475 14.158203 10.28125 C 14.103603 10.41385 14.029147 10.543169 13.935547 10.667969 C 13.845847 10.792769 13.743953 10.912297 13.626953 11.029297 C 13.509953 11.146297 13.390431 11.263859 13.269531 11.380859 C 13.168131 11.478359 13.068203 11.578288 12.970703 11.679688 C 12.877103 11.777187 12.790891 11.877116 12.712891 11.978516 C 12.638791 12.076016 12.580003 12.172031 12.533203 12.269531 C 12.490303 12.363131 12.46875 12.457181 12.46875 12.550781 L 12.46875 12.5625 L 14.380859 12.5625 L 14.380859 12.896484 L 12.046875 12.896484 C 12.046875 12.888684 12.044949 12.874969 12.041016 12.855469 L 12.041016 12.755859 C 12.041016 12.572559 12.074325 12.402094 12.140625 12.246094 C 12.206925 12.086194 12.291178 11.937275 12.392578 11.796875 C 12.497878 11.656475 12.611528 11.525197 12.736328 11.404297 C 12.865028 11.283397 12.988469 11.165834 13.105469 11.052734 C 13.202969 10.959134 13.295059 10.869003 13.380859 10.783203 C 13.470559 10.693503 13.548934 10.603366 13.615234 10.509766 C 13.681534 10.416166 13.732484 10.316237 13.771484 10.210938 C 13.810484 10.105638 13.830078 9.9900344 13.830078 9.8652344 C 13.830078 9.5922344 13.757575 9.39825 13.609375 9.28125 C 13.465075 9.16035 13.280894 9.0996094 13.058594 9.0996094 C 12.933794 9.0996094 12.822109 9.1152844 12.724609 9.1464844 C 12.627109 9.1776844 12.54285 9.2149125 12.46875 9.2578125 C 12.39855 9.2968125 12.337809 9.3379594 12.287109 9.3808594 C 12.236409 9.4237594 12.199181 9.4570688 12.175781 9.4804688 L 11.976562 9.2167969 C 11.999963 9.1894969 12.041109 9.1503094 12.099609 9.0996094 C 12.162009 9.0450094 12.238425 8.9921062 12.328125 8.9414062 C 12.421725 8.8907063 12.527538 8.8476 12.648438 8.8125 C 12.769337 8.7735 12.904534 8.7539063 13.052734 8.7539062 z M 9.3515625 8.8105469 C 9.2075625 8.8105469 9.0583438 8.8217031 8.9023438 8.8457031 C 8.7463437 8.8637031 8.6027031 8.9084687 8.4707031 8.9804688 C 8.3387031 9.0464688 8.2304844 9.1397656 8.1464844 9.2597656 C 8.0624844 9.3797656 8.0195312 9.5383281 8.0195312 9.7363281 C 8.0195312 9.9103281 8.0475625 10.057734 8.1015625 10.177734 C 8.1615625 10.297734 8.24175 10.394797 8.34375 10.466797 C 8.45175 10.538797 8.5786563 10.592906 8.7226562 10.628906 C 8.8726562 10.658906 9.0405625 10.673828 9.2265625 10.673828 C 9.4545625 10.673828 9.6523125 10.666297 9.8203125 10.654297 C 9.9943127 10.636297 10.141719 10.615797 10.261719 10.591797 L 10.261719 8.953125 C 10.195719 8.923125 10.089313 8.8932812 9.9453125 8.8632812 C 9.8013125 8.8272812 9.6035625 8.8105469 9.3515625 8.8105469 z "
     id="path4" />
</svg>

<svg xmlns="http://www.w3.org/2000/svg" viewBox="0 0 16 16">
 <path d="m 1.6 0 c -0.886 0 -1.6 0.713 -1.6 1.6 l 0 12.801 c 0 0.886 0.713 1.6 1.6 1.6 l 12.801 0 c 0.886 0 1.6 -0.713 1.6 -1.6 l 0 -12.801 c 0 -0.886 -0.713 -1.6 -1.6 -1.6 l -12.801 0 z m 2.953 4.725 c 0.462 0 0.843 0.05 1.143 0.152 c 0.3 0.096 0.52 0.189 0.658 0.279 l -0.207 0.521 c -0.168 -0.12 -0.396 -0.215 -0.684 -0.287 c -0.288 -0.078 -0.601 -0.117 -0.938 -0.117 c -0.312 0 -0.605 0.056 -0.881 0.17 c -0.276 0.114 -0.517 0.286 -0.721 0.514 c -0.204 0.228 -0.366 0.51 -0.486 0.846 c -0.114 0.336 -0.17 0.726 -0.17 1.17 c 0 0.414 0.049 0.789 0.145 1.125 c 0.096 0.33 0.24 0.615 0.432 0.855 c 0.198 0.234 0.441 0.413 0.729 0.539 c 0.288 0.126 0.62 0.189 0.998 0.189 c 0.306 0 0.562 -0.015 0.766 -0.045 c 0.21 -0.036 0.352 -0.07 0.424 -0.1 l 0 -2.393 l 0.611 0 l 0 2.781 c -0.114 0.048 -0.34 0.108 -0.676 0.18 c -0.33 0.078 -0.737 0.117 -1.223 0.117 c -0.408 0 -0.787 -0.073 -1.135 -0.217 c -0.348 -0.144 -0.65 -0.351 -0.908 -0.621 c -0.252 -0.276 -0.45 -0.616 -0.594 -1.018 c -0.144 -0.408 -0.217 -0.873 -0.217 -1.395 c 0 -0.522 0.078 -0.983 0.234 -1.385 c 0.156 -0.408 0.365 -0.748 0.629 -1.018 c 0.27 -0.276 0.584 -0.487 0.938 -0.631 c 0.354 -0.144 0.731 -0.215 1.133 -0.215 z m 4.619 1.611 c 0.306 0 0.563 0.045 0.773 0.135 c 0.216 0.084 0.391 0.203 0.523 0.359 c 0.132 0.15 0.227 0.329 0.287 0.539 c 0.06 0.21 0.09 0.44 0.09 0.686 l 0 2.934 c -0.06 0.018 -0.146 0.038 -0.26 0.063 c -0.114 0.018 -0.246 0.038 -0.396 0.063 c -0.15 0.024 -0.318 0.043 -0.504 0.055 c -0.18 0.018 -0.367 0.027 -0.559 0.027 c -0.246 0 -0.474 -0.028 -0.684 -0.082 c -0.204 -0.054 -0.385 -0.138 -0.541 -0.252 c -0.15 -0.12 -0.269 -0.269 -0.359 -0.449 c -0.084 -0.186 -0.127 -0.412 -0.127 -0.676 c 0 -0.252 0.049 -0.466 0.145 -0.646 c 0.096 -0.18 0.232 -0.327 0.406 -0.441 c 0.174 -0.12 0.381 -0.208 0.621 -0.262 c 0.24 -0.054 0.499 -0.08 0.781 -0.08 c 0.084 0 0.172 0.006 0.262 0.018 c 0.096 0.006 0.186 0.017 0.27 0.035 c 0.09 0.012 0.165 0.027 0.225 0.045 c 0.066 0.012 0.113 0.025 0.137 0.037 l 0 -0.289 c 0 -0.162 -0.013 -0.317 -0.037 -0.467 c -0.024 -0.156 -0.078 -0.294 -0.162 -0.414 c -0.078 -0.126 -0.192 -0.225 -0.342 -0.297 c -0.144 -0.078 -0.336 -0.117 -0.576 -0.117 c -0.342 0 -0.596 0.024 -0.764 0.072 c -0.168 0.048 -0.291 0.087 -0.369 0.117 l -0.082 -0.514 c 0.102 -0.048 0.259 -0.093 0.469 -0.135 c 0.216 -0.042 0.473 -0.063 0.773 -0.063 z m 3.881 2.418 c 0.394 0 0.69 0.098 0.889 0.293 c 0.199 0.191 0.299 0.458 0.299 0.801 c 0 0.152 -0.027 0.297 -0.082 0.434 c -0.055 0.133 -0.129 0.262 -0.223 0.387 c -0.09 0.125 -0.192 0.244 -0.309 0.361 c -0.117 0.117 -0.237 0.235 -0.357 0.352 c -0.101 0.098 -0.201 0.197 -0.299 0.299 c -0.094 0.097 -0.18 0.197 -0.258 0.299 c -0.074 0.097 -0.133 0.194 -0.18 0.291 c -0.043 0.094 -0.064 0.188 -0.064 0.281 l 0 0.012 l 1.912 0 l 0 0.334 l -2.334 0 c 0 -0.008 -0.002 -0.022 -0.006 -0.041 l 0 -0.1 c 0 -0.183 0.033 -0.354 0.1 -0.51 c 0.066 -0.16 0.151 -0.309 0.252 -0.449 c 0.105 -0.14 0.219 -0.272 0.344 -0.393 c 0.129 -0.121 0.252 -0.238 0.369 -0.352 c 0.098 -0.094 0.19 -0.184 0.275 -0.27 c 0.09 -0.09 0.168 -0.18 0.234 -0.273 c 0.066 -0.094 0.117 -0.194 0.156 -0.299 c 0.039 -0.105 0.059 -0.221 0.059 -0.346 c 0 -0.273 -0.073 -0.467 -0.221 -0.584 c -0.144 -0.121 -0.328 -0.182 -0.551 -0.182 c -0.125 0 -0.236 0.016 -0.334 0.047 c -0.097 0.031 -0.182 0.068 -0.256 0.111 c -0.07 0.039 -0.131 0.08 -0.182 0.123 c -0.051 0.043 -0.088 0.076 -0.111 0.1 l -0.199 -0.264 c 0.023 -0.027 0.065 -0.066 0.123 -0.117 c 0.062 -0.055 0.139 -0.108 0.229 -0.158 c 0.094 -0.051 0.199 -0.094 0.32 -0.129 c 0.121 -0.039 0.256 -0.059 0.404 -0.059 z m -3.701 0.057 c -0.144 0 -0.293 0.011 -0.449 0.035 c -0.156 0.018 -0.3 0.063 -0.432 0.135 c -0.132 0.066 -0.24 0.159 -0.324 0.279 c -0.084 0.12 -0.127 0.279 -0.127 0.477 c 0 0.174 0.028 0.321 0.082 0.441 c 0.06 0.12 0.14 0.217 0.242 0.289 c 0.108 0.072 0.235 0.126 0.379 0.162 c 0.15 0.03 0.318 0.045 0.504 0.045 c 0.228 0 0.426 -0.008 0.594 -0.02 c 0.174 -0.018 0.321 -0.038 0.441 -0.063 l 0 -1.639 c -0.066 -0.03 -0.172 -0.06 -0.316 -0.09 c -0.144 -0.036 -0.342 -0.053 -0.594 -0.053 z" style="fill:#ececec;fill-opacity:1"/>
</svg>
